X: 63
T: Slaunt Ri Plulib
Q: "Slow"
%R: air, waltz
B: "The Hibernian Muse" p.39 #2
F: http://imslp.org/wiki/The_Hibernian_Muse_%28Various%29
Z: 2015 John Chambers <jc:trillian.mit.edu>
P: No. LXIII.
M: 3/4
L: 1/8
K: Gm
%%slurgraces
%%graceslurs
% - - - - - - - - - - - - - - - - - - - - - - - - - - - - -
V: 1
|:\
G4 ^F2 | G2 A2 c2 | d4 c2 | {B2}A4 d2 |\
c4 AG | ^F2 A3 G | ^F3 E F2 | D6 |\
G4 ^F2 | G2 A2 c2 |
d4 A2 | c4 d=e |\
f2 =e2 d2 | c2 A2 (G^F) | G6- | G6 :|\
|:\
g4 ^f2 | g2 a2 b2 | a4 gf | Td4 d=e |\
f3 gfg |
f2 d2 f2 | Tc4 {B}A2 | T^F4 {E}D2 |\
G3 AG^F | G2 A2 c2 | d4 A2 | c4 d=e |\
f2=e2 d2 | c2 A2 (G^F) | G6- | G6 :|
% - - - - - - - - - - - - - - - - - - - - - - - - - - - - -
V: 2 clef=bass middle=d
|:\
G2 g2 a2 | b2 c'2 a2 | b2 g2 a2 | {g2}^f4 g2 |\
a2 A2 c2 | d2 ^c4 | d6 | d2 dcBA | G4 A2 | B2 c2 e2 |
d4 z2 | a3 gf=e | d2 c2 B2 | A2 d2 D2 | G2 B2 d2 | g2 G4 :|\
|:\
G2 g2 a2 | b2 a2 g2 | ^f4 g2 | d'2 d3 c | B2 d2 B2 |
b2 b2 b2 | a2 A2 c2 | d2 d'2 c'2 | b3 c'ba | g2 f2 e2 |\
d3 d'c'b | a2 f3 =e | d2 c2 B2 | c2 d2 D2 | G2 B2 d2 | g2 G2 z2 :|

%%sep 2 1 500
%%sep 1 1 500

